icons/4_Outdated/OVH v1.svg

<svg width="1024" height="1024" viewBox="0 0 1024 1024" fill="none" xmlns="http://www.w3.org/2000/svg">
<g clip-path="url(#clip0_3_620)">
<path d="M512 1024C794.77 1024 1024 794.77 1024 512C1024 229.23 794.77 0 512 0C229.23 0 0 229.23 0 512C0 794.77 229.23 1024 512 1024Z" fill="#728DBE"/>
<path d="M700.2 466.499L761.4 360.199C785 401.799 798.6 449.999 798.6 501.299C798.6 570.099 774.3 633.199 733.9 682.699H575.8L624.5 598.099H560.1L635.9 466.399L700.2 466.499ZM644.8 341.299L448.3 682.499L448.4 682.699H290.1C249.6 633.199 225.4 570.099 225.4 501.299C225.4 449.899 239 401.699 262.7 359.999L365.2 538.199L478.5 341.199H644.8V341.299Z" fill="white"/>
</g>
<defs>
<clipPath id="clip0_3_620">
<rect width="1024" height="1024" fill="white"/>
</clipPath>
</defs>
</svg>

<svg xmlns="http://www.w3.org/2000/svg" viewBox="0 0 1024 1024">
   <circle cx="512" cy="512" r="512" style="fill:#123f6d"/>
   <path d="m700.2 466.5 61.2-106.3c23.6 41.6 37.2 89.8 37.2 141.1 0 68.8-24.3 131.9-64.7 181.4H575.8l48.7-84.6h-64.4l75.8-131.7 64.3.1zm-55.4-125.2L448.3 682.5l.1.2H290.1c-40.5-49.5-64.7-112.6-64.7-181.4 0-51.4 13.6-99.6 37.3-141.3l102.5 178.2 113.3-197h166.3z" style="fill:#fff"/>
</svg>
